build/assets/images/proyectos/logos/fichas/logo-museo-nacional-centro-de-arte-reina-sofia.svg

<svg width="161" height="81" viewBox="0 0 161 81" fill="none" xmlns="http://www.w3.org/2000/svg">
<g clip-path="url(#clip0)">
<path fill-rule="evenodd" clip-rule="evenodd" d="M4.70292 44.1176H155.944V5.03606H4.70292V44.1176ZM155.944 48.3772H4.70292V76.4104H155.944V48.3772ZM0.469971 0.776489H160.204V80.6434H0.469971V0.776489V0.776489Z" fill="white"/>
<path fill-rule="evenodd" clip-rule="evenodd" d="M96.7895 66.1076C96.7895 62.9396 95.2454 61.5552 91.9709 60.517C90.5865 60.0644 88.8827 59.665 88.8827 58.5735C88.8827 57.6684 89.4417 57.269 90.267 57.269H90.7462C91.678 57.269 92.3968 57.7749 92.9026 58.7333L93.4617 58.8131L96.3635 56.8697L96.4168 56.2574C96.0441 55.6451 95.5915 55.0594 95.0857 54.6334C93.9942 53.675 92.5299 53.1426 90.7196 53.1426H90.2937C86.46 53.1426 84.1705 55.2191 84.1705 58.7333C84.1705 61.8747 85.8477 63.0993 88.8294 64.1376C90.693 64.7765 92.104 64.9629 92.104 66.2141C92.104 67.0394 91.5449 67.5186 90.693 67.5186H89.8145C88.8827 67.5186 88.1639 67.0128 87.6581 66.0544L87.099 65.9745L84.1972 67.918L84.1439 68.5037C84.4368 69.0361 84.8095 69.5153 85.262 69.9413C86.3802 71.0328 87.9509 71.6717 89.8677 71.6717H90.7196C94.6065 71.6717 96.7895 69.5952 96.7895 66.1076ZM133.688 71.0328V53.7549L133.369 53.462H129.269L129.029 53.7549V71.0328L129.269 71.3256H133.369L133.688 71.0328ZM127.086 57.3755V53.7549L126.819 53.462H115.186L114.946 53.7549V71.0328L115.186 71.3256H119.312L119.605 71.0328V64.67L119.924 64.3506H125.568L125.834 64.111V60.4637L125.568 60.1975H119.924L119.605 59.878V57.9346L119.924 57.6151H126.793L127.086 57.3755ZM144.337 65.2025L144.097 65.4421H142.473L142.207 65.2025L142.713 62.9928C143.112 61.3156 143.299 59.5053 143.299 59.5053H143.379C143.379 59.5053 143.565 61.3156 143.911 62.9928L144.337 65.2025ZM150.886 70.9529L145.056 53.675L144.816 53.4887H141.781L141.488 53.675L135.631 70.9529L135.898 71.3256H140.21L140.45 71.1393L141.195 69.0095L141.542 68.8231H144.896L145.269 69.0095L145.988 71.1393L146.227 71.3256H150.62L150.886 70.9529ZM62.1805 70.9795V53.7549L61.9143 53.462H57.9742L57.7346 53.7549V58.3339C57.7346 60.8364 57.8677 63.0461 57.8677 63.0461H57.7878C57.7878 63.0461 57.5749 62.4338 57.1755 61.6883L53.0491 53.7283L52.6764 53.462H49.1356L48.896 53.7549V70.9795L49.1356 71.2458H53.1556L53.4218 70.9795V66.4804C53.4218 64.1642 53.262 61.9279 53.262 61.9279H53.3685C53.3685 61.9279 53.5815 62.5403 53.9542 63.2058L58.1073 70.9795L58.4268 71.2191H61.9143L62.1805 70.9795ZM46.1805 70.9795V53.7549L45.861 53.462H41.7612L41.5216 53.7549V70.9795L41.7612 71.2458H45.861L46.1805 70.9795ZM108.104 66.3739C108.104 67.0394 107.598 67.5186 106.746 67.5186H104.803C103.818 67.5186 103.312 67.066 103.312 66.3739V58.4404C103.312 57.8547 103.978 57.2424 104.803 57.2424H106.746C107.545 57.2424 108.104 57.7482 108.104 58.4404V66.3739ZM112.736 66.3739V58.4404C112.736 55.2191 110.314 53.1426 106.746 53.1426H104.803C101.235 53.1426 98.7595 55.2457 98.7595 58.4404V66.3739C98.7595 69.5685 101.182 71.6717 104.803 71.6717H106.746C110.314 71.6717 112.736 69.5685 112.736 66.3739ZM72.6963 65.1759L72.4567 65.4155H70.8328L70.5665 65.1759L71.0724 62.9662C71.4717 61.3156 71.6581 59.5053 71.6581 59.5053H71.7379C71.7379 59.5053 71.9243 61.3156 72.2704 62.9662L72.6963 65.1759ZM79.2454 70.8997L73.4151 53.675L73.1755 53.4887H70.1406L69.8744 53.675L64.0441 70.8997L64.3103 71.2724H68.5965L68.8361 71.086L69.5815 68.9562L69.9276 68.7699H73.282L73.6547 68.9562L74.3735 71.086L74.6131 71.2724H78.9792L79.2454 70.8997ZM38.8328 70.9795V67.3589L38.5665 67.1193H31.698L31.3519 66.7998V64.6168L31.698 64.2973H37.3419L37.6348 64.0577V60.4105L37.3419 60.1442H31.698L31.3519 59.8248V57.8813L31.698 57.5619H38.5665L38.8328 57.3223V53.7016L38.5665 53.4088H26.9592L26.7196 53.7016V70.9263L26.9592 71.1925H38.5665L38.8328 70.9795ZM24.4035 70.8997L21.6614 63.8181L21.7945 63.2058C23.0191 62.4071 23.8178 61.0494 23.8178 59.319V59.0527C23.8178 55.5918 21.475 53.462 17.8278 53.462H10.0541L9.81445 53.7549V70.9795L10.0541 71.2458H14.1805L14.4467 70.9795V64.6168L14.7928 64.2973H16.7096L16.9492 64.4837L19.505 71.0328L19.7446 71.2191H24.1372L24.4035 70.8997ZM19.2387 59.3456C19.2387 60.1176 18.7063 60.4637 17.8544 60.4637H14.7928L14.4467 60.1442V57.908L14.7928 57.5885H17.8278C18.7595 57.5885 19.2121 58.0145 19.2121 58.7865V59.3456H19.2387Z" fill="white"/>
<path fill-rule="evenodd" clip-rule="evenodd" d="M97.5881 22.8464H96.2303C93.8077 22.8464 92.2636 21.4354 92.2636 19.3323V13.6617C92.2636 11.5586 93.8343 10.1476 96.2303 10.1476H97.5881C99.9575 10.1476 101.502 11.5586 101.502 13.6617V14.487H98.8127V13.6617C98.8127 12.9962 98.2803 12.5436 97.5881 12.5436H96.2303C95.5648 12.5436 94.9258 13.0494 94.9258 13.6617V19.3057C94.9258 19.9978 95.4583 20.3972 96.2303 20.3972H97.5881C98.3069 20.3972 98.8127 19.9446 98.8127 19.3057V18.507H101.502V19.3323C101.502 21.4088 99.9575 22.8464 97.5881 22.8464ZM86.9392 10.4138L90.9591 22.6068H88.0573L87.5781 21.116L87.0723 20.7965H84.7295L84.2503 21.116L83.7445 22.6068H80.8959L84.9159 10.4138H86.9392V10.4138ZM86.6729 18.507L86.5132 18.6933H85.3684L85.1821 18.507L85.5282 16.9363C85.7944 15.7383 85.9275 14.4604 85.9275 14.4604H85.9808C85.9808 14.4604 86.1139 15.7649 86.3535 16.9363L86.6729 18.507ZM113.881 22.873H112.523C110.101 22.873 108.556 21.4621 108.556 19.3589V13.6884C108.556 11.5852 110.127 10.1742 112.523 10.1742H113.881C116.25 10.1742 117.794 11.5852 117.794 13.6884V19.3589C117.794 21.4621 116.25 22.873 113.881 22.873ZM114.839 19.3323C114.839 19.8115 114.493 20.1576 113.881 20.1576H112.523C111.831 20.1576 111.485 19.8381 111.485 19.3323V13.6617C111.485 13.2358 111.964 12.8098 112.523 12.8098H113.881C114.44 12.8098 114.839 13.1825 114.839 13.6617V19.3323V19.3323ZM136.59 10.4138L140.61 22.6068H137.708L137.229 21.116L136.723 20.7965H134.38L133.901 21.116L133.395 22.6068H130.546L134.566 10.4138H136.59V10.4138ZM136.324 18.507L136.137 18.6933H135.019L134.833 18.507L135.179 16.9363C135.445 15.7383 135.578 14.4604 135.578 14.4604H135.631C135.631 14.4604 135.764 15.7649 136.004 16.9363L136.324 18.507ZM106.427 10.4138V22.6068H103.711V10.4138H106.427V10.4138ZM150.593 20.1842V22.6068H142.66V10.4138H145.375V19.8115L145.748 20.1842H150.593V20.1842ZM79.0057 10.4138V22.6068H76.6896L72.8826 15.9513V22.6068H70.247V10.4138H72.6164L76.5298 17.2557V10.4138H79.0057V10.4138ZM33.1621 10.4138V19.3589C33.1621 21.4621 31.618 22.873 29.2486 22.873H27.8909C25.4683 22.873 23.9508 21.4621 23.9508 19.3589V10.4138H26.5864V19.3589C26.5864 20.0511 27.0656 20.4504 27.8909 20.4504H29.2486C30.0473 20.4504 30.4999 20.0245 30.4999 19.3589V10.4138H33.1621ZM60.9292 22.8464H59.5714C57.1488 22.8464 55.6047 21.4354 55.6047 19.3323V13.6617C55.6047 11.5586 57.1754 10.1476 59.5714 10.1476H60.9292C63.2986 10.1476 64.8426 11.5586 64.8426 13.6617V19.3323C64.8426 21.4354 63.2986 22.8464 60.9292 22.8464ZM61.8876 19.3323C61.8876 19.8115 61.5415 20.1576 60.9292 20.1576H59.5714C58.8793 20.1576 58.5332 19.8381 58.5332 19.3323V13.6617C58.5332 13.2358 59.0124 12.8098 59.5714 12.8098H60.9292C61.4882 12.8098 61.8876 13.1825 61.8876 13.6617V19.3323ZM41.3618 13.7416C40.9891 12.9962 40.43 12.5702 39.6313 12.5702H39.3119C38.6197 12.5702 38.0606 12.9429 38.0606 13.7682C38.0606 14.3273 38.4866 14.6734 38.9125 14.8864L39.658 15.1792L40.4034 15.4188C42.613 16.1376 43.5981 17.0694 43.5981 19.1459C43.5981 21.4621 42.2137 22.8464 39.6047 22.8464H38.9924C37.7145 22.8464 36.7029 22.4205 35.9575 21.7017L35.212 20.7166L35.1854 20.6368L37.2087 19.2524C37.608 19.9712 38.1671 20.4238 38.9392 20.4238H39.5515C40.2703 20.4238 40.8027 19.9712 40.8027 19.2258C40.8027 18.6401 40.4566 18.294 40.004 18.0544L39.2586 17.7616L38.3535 17.4687C36.3035 16.7499 35.2653 15.9246 35.2653 13.8481C35.2653 11.5053 36.7561 10.121 39.2852 10.121H39.5781C40.7761 10.121 41.7611 10.4937 42.4533 11.1326L43.3318 12.2508L43.3851 12.3306L41.3618 13.7416ZM21.1288 10.4138V22.6068H18.5997V20.0777V16.0844L16.6297 21.0627L16.5498 21.0894H14.6596L14.5797 21.0627L12.6363 16.0577V19.9978V22.5802H10.054V10.3872H12.8227L15.6713 17.522L18.3867 10.3872L21.1288 10.4138ZM129.056 10.4138V22.6068H126.739L122.933 15.9513V22.6068H120.297V10.4138H122.666L126.58 17.2557V10.4138H129.056V10.4138ZM53.8476 20.1842V22.6068H45.9142V10.4138H53.8476V12.8364H48.9758L48.6297 13.1559V14.913L49.0024 15.2058H53.0223V17.6285H49.0024L48.6563 17.9213V19.8914L49.029 20.1576H53.8476V20.1842Z" fill="white"/>
<path fill-rule="evenodd" clip-rule="evenodd" d="M114.014 26.5469L118.034 38.7399H115.132L114.653 37.2757L114.147 36.9562H111.804L111.325 37.2757L110.819 38.7665H107.971L111.991 26.5735H114.014V26.5469ZM113.748 34.6667L113.561 34.8531H112.443L112.257 34.6667L112.603 33.096C112.869 31.898 113.002 30.6201 113.002 30.6201H113.056C113.056 30.6201 113.189 31.9246 113.428 33.096L113.748 34.6667ZM128.044 33.7615L129.908 38.7399H127.059L125.275 34.081L124.849 33.7615H123.492L122.986 34.2674V38.7399H120.27V26.5469H125.621C128.044 26.5469 129.535 27.9579 129.535 30.274V30.4604C129.535 31.6318 129.002 32.5103 128.23 33.0161L128.044 33.7615ZM126.393 30.487C126.393 31.0194 126.021 31.2857 125.408 31.2857H123.279L123.039 31.0727V29.4754L123.279 29.2624H125.408C126.047 29.2624 126.393 29.5552 126.393 30.1143V30.487ZM88.2969 35.2258C88.2969 35.6517 87.8709 36.0511 87.3118 36.0511H85.1821L84.9425 35.8381V29.4754L85.1821 29.2624H87.3118C87.8443 29.2624 88.2969 29.715 88.2969 30.1143V35.2258ZM81.9608 26.5469H87.3118C89.7345 26.5469 91.2253 27.9579 91.2253 30.274V35.066C91.2253 37.3556 89.7345 38.7399 87.3118 38.7399H81.9608V26.5469ZM29.994 36.3173V38.7399H22.0606V26.5469H29.994V28.9695H25.1222L24.7761 29.289V31.0461L25.1488 31.3389H29.1421V33.7615H25.1222L24.7761 34.0544V36.0244L25.1488 36.2907H29.994V36.3173ZM62.846 33.7615L64.7095 38.7399H61.8609L60.0772 34.081L59.6513 33.7615H58.1604L57.7877 34.1076V38.7399H55.0722V26.5469H60.4233C62.846 26.5469 64.3368 27.9579 64.3368 30.274V30.4604C64.3368 31.6318 63.8044 32.5103 63.0323 33.0161L62.846 33.7615ZM61.3817 30.487C61.3817 31.0194 61.009 31.2857 60.3967 31.2857H57.9475L57.7079 31.0727V29.4754L57.9475 29.2624H60.3967C61.0356 29.2624 61.3817 29.5552 61.3817 30.1143V30.487ZM72.0839 38.8996H70.7262C68.3035 38.8996 66.7594 37.4887 66.7594 35.3855V29.715C66.7594 27.6118 68.3301 26.2008 70.7262 26.2008H72.0839C74.4533 26.2008 75.9974 27.6118 75.9974 29.715V35.3855C75.9974 37.4887 74.4533 38.8996 72.0839 38.8996ZM73.0157 35.3855C73.0157 35.8647 72.6696 36.2108 72.0573 36.2108H70.6995C70.0074 36.2108 69.6613 35.8913 69.6613 35.3855V29.715C69.6613 29.289 70.1405 28.863 70.6995 28.863H72.0573C72.6163 28.863 73.0157 29.2358 73.0157 29.715V35.3855ZM52.5964 26.5469V28.9695H50.1471L49.7744 29.2357V38.7399H47.0856V29.2624L46.7128 28.9695H44.237V26.5469H52.5964V26.5469ZM15.405 38.8996H14.0473C11.6247 38.8996 10.0806 37.4887 10.0806 35.3855V29.715C10.0806 27.6118 11.6513 26.2008 14.0473 26.2008H15.405C17.7744 26.2008 19.3185 27.6118 19.3185 29.715V30.5402H16.6297V29.715C16.6297 29.0494 16.0972 28.5968 15.405 28.5968H14.0473C13.3817 28.5968 12.7428 29.1026 12.7428 29.715V35.3855C12.7428 36.0777 13.2486 36.477 14.0473 36.477H15.405C16.1238 36.477 16.6297 36.0511 16.6297 35.3855V34.5602H19.3185V35.3855C19.3185 37.4887 17.7744 38.8996 15.405 38.8996ZM41.7611 26.5469V38.7399H39.445L35.638 32.0843V38.7399H33.0024V26.5469H35.3717L39.2852 33.3888V26.5469H41.7611ZM150.593 36.3173V38.7399H142.66V26.5469H150.593V28.9695H145.721L145.375 29.289V31.0461L145.748 31.3389H149.741V33.7615H145.721L145.375 34.0544V36.0244L145.748 36.2907H150.593V36.3173ZM102.22 36.3173V38.7399H94.2869V26.5469H102.22V28.9695H97.3484L97.0024 29.289V31.0461L97.3751 31.3389H101.342V33.7615H97.3218L96.9757 34.0544V36.0244L97.3484 36.2907H102.22V36.3173ZM139.784 26.5469V28.9695H137.335L136.962 29.2357V38.7399H134.274V29.2624L133.901 28.9695H131.425V26.5469H139.784V26.5469Z" fill="white"/>
</g>
<defs>
<clipPath id="clip0">
<rect width="160" height="80.1331" fill="white" transform="translate(0.443359 0.670044)"/>
</clipPath>
</defs>
</svg>

<svg width="161" height="81" fill="none" xmlns="http://www.w3.org/2000/svg"><g clip-path="url(#clip0)" fill-rule="evenodd" clip-rule="evenodd" fill="#fff"><path d="M4.703 44.118h151.241V5.036H4.703v39.082zm151.241 4.26H4.703V76.41h151.241V48.377zM.47.775h159.734v79.867H.47V.776z"/><path d="M96.79 66.108c0-3.168-1.545-4.553-4.82-5.591-1.383-.453-3.087-.852-3.087-1.944 0-.905.559-1.304 1.384-1.304h.48c.931 0 1.65.506 2.156 1.464l.559.08 2.901-1.943.054-.613c-.373-.612-.826-1.198-1.331-1.624-1.092-.958-2.556-1.49-4.366-1.49h-.426c-3.834 0-6.123 2.076-6.123 5.59 0 3.142 1.677 4.366 4.658 5.405 1.864.638 3.275.825 3.275 2.076 0 .825-.56 1.305-1.411 1.305h-.879c-.931 0-1.65-.506-2.156-1.465l-.559-.08-2.902 1.944-.053.586a5.815 5.815 0 001.118 1.437c1.118 1.092 2.689 1.73 4.606 1.73h.852c3.886 0 6.07-2.076 6.07-5.563zm36.898 4.925V53.755l-.319-.293h-4.1l-.24.293v17.278l.24.293h4.1l.319-.293zm-6.602-13.657v-3.621l-.267-.293h-11.633l-.24.293v17.278l.24.293h4.126l.293-.293V64.67l.319-.32h5.644l.266-.239v-3.647l-.266-.267h-5.644l-.319-.319v-1.943l.319-.32h6.869l.293-.24zm17.251 7.827l-.24.24h-1.624l-.266-.24.506-2.21c.399-1.677.586-3.488.586-3.488h.08s.186 1.81.532 3.488l.426 2.21zm6.549 5.75l-5.83-17.278-.24-.186h-3.035l-.293.186-5.857 17.278.267.373h4.312l.24-.187.745-2.13.347-.186h3.354l.373.187.719 2.13.239.186h4.393l.266-.373zm-88.706.026V53.755l-.266-.293h-3.94l-.24.293v4.579c0 2.502.134 4.712.134 4.712h-.08s-.213-.612-.612-1.358l-4.127-7.96-.373-.266h-3.54l-.24.293v17.224l.24.267h4.02l.266-.266v-4.5c0-2.316-.16-4.552-.16-4.552h.106s.213.612.586 1.278l4.153 7.773.32.24h3.487l.267-.24zm-16 0V53.755l-.319-.293h-4.1l-.24.293v17.224l.24.267h4.1l.32-.266zm61.924-4.605c0 .665-.506 1.145-1.358 1.145h-1.943c-.985 0-1.491-.453-1.491-1.145V58.44c0-.585.666-1.198 1.491-1.198h1.943c.799 0 1.358.506 1.358 1.198v7.934zm4.632 0V58.44c0-3.22-2.422-5.297-5.99-5.297h-1.943c-3.568 0-6.043 2.103-6.043 5.297v7.934c0 3.195 2.422 5.298 6.043 5.298h1.943c3.568 0 5.99-2.103 5.99-5.298zm-40.04-1.198l-.24.24h-1.623l-.266-.24.505-2.21c.4-1.65.586-3.46.586-3.46h.08s.186 1.81.532 3.46l.426 2.21zm6.55 5.724l-5.83-17.225-.24-.186H70.14l-.267.186-5.83 17.225.266.372h4.287l.24-.186.745-2.13.346-.186h3.354l.373.186.719 2.13.24.186h4.365l.266-.372zm-40.413.08v-3.621l-.267-.24h-6.868l-.346-.32v-2.182l.346-.32h5.644l.293-.24V60.41l-.293-.266h-5.644l-.346-.32v-1.943l.346-.32h6.868l.267-.239v-3.62l-.267-.293H26.96l-.24.293v17.224l.24.266h11.607l.267-.212zm-14.43-.08l-2.742-7.082.133-.612c1.225-.799 2.024-2.157 2.024-3.887v-.266c0-3.461-2.343-5.591-5.99-5.591h-7.774l-.24.293v17.224l.24.267h4.127l.266-.266v-6.363l.346-.32h1.917l.24.187 2.555 6.549.24.186h4.392l.267-.32zM19.24 59.346c0 .772-.533 1.118-1.385 1.118h-3.061l-.346-.32v-2.236l.346-.32h3.035c.931 0 1.384.426 1.384 1.198v.56h.027zm78.348-36.5H96.23c-2.422 0-3.966-1.41-3.966-3.514v-5.67c0-2.103 1.57-3.514 3.966-3.514h1.358c2.37 0 3.914 1.41 3.914 3.514v.825h-2.69v-.825c0-.666-.532-1.118-1.224-1.118H96.23c-.665 0-1.304.505-1.304 1.118v5.644c0 .692.532 1.091 1.304 1.091h1.358c.719 0 1.225-.452 1.225-1.091v-.799h2.689v.825c0 2.077-1.544 3.514-3.914 3.514zM86.94 10.414l4.02 12.193h-2.902l-.479-1.491-.506-.32H84.73l-.479.32-.505 1.49h-2.85l4.02-12.192h2.024zm-.266 8.093l-.16.186h-1.145l-.186-.186.346-1.57c.266-1.199.4-2.477.4-2.477h.053s.133 1.305.373 2.476l.319 1.571zm27.208 4.366h-1.358c-2.422 0-3.967-1.41-3.967-3.514v-5.67c0-2.104 1.571-3.515 3.967-3.515h1.358c2.369 0 3.913 1.411 3.913 3.514v5.67c0 2.104-1.544 3.515-3.913 3.515zm.958-3.54c0 .479-.346.825-.958.825h-1.358c-.692 0-1.038-.32-1.038-.826v-5.67c0-.426.479-.852 1.038-.852h1.358c.559 0 .958.372.958.852v5.67zm21.751-8.92l4.02 12.194h-2.902l-.479-1.491-.506-.32h-2.343l-.479.32-.506 1.49h-2.849l4.02-12.192h2.024zm-.266 8.094l-.187.186h-1.118l-.186-.186.346-1.57c.266-1.199.399-2.477.399-2.477h.053s.133 1.305.373 2.476l.32 1.571zm-29.897-8.093v12.193h-2.716V10.414h2.716zm44.166 9.77v2.423h-7.933V10.414h2.715v9.397l.373.373h4.845zm-71.587-9.77v12.193H76.69l-3.807-6.656v6.656h-2.636V10.414h2.37l3.913 6.842v-6.842h2.476zm-45.844 0v8.945c0 2.103-1.544 3.514-3.913 3.514h-1.36c-2.423 0-3.94-1.41-3.94-3.514v-8.945h2.635v8.945c0 .692.48 1.091 1.305 1.091h1.358c.798 0 1.25-.425 1.25-1.091v-8.945h2.663zM60.93 22.846h-1.358c-2.422 0-3.966-1.41-3.966-3.514v-5.67c0-2.103 1.57-3.514 3.966-3.514h1.358c2.37 0 3.914 1.41 3.914 3.514v5.67c0 2.103-1.544 3.514-3.914 3.514zm.959-3.514c0 .48-.346.826-.959.826h-1.358c-.692 0-1.038-.32-1.038-.826v-5.67c0-.426.48-.852 1.038-.852h1.358c.56 0 .959.372.959.852v5.67zm-20.526-5.59c-.373-.746-.932-1.172-1.73-1.172h-.32c-.692 0-1.251.373-1.251 1.198 0 .56.426.905.852 1.118l.745.293.745.24c2.21.719 3.195 1.65 3.195 3.727 0 2.316-1.384 3.7-3.993 3.7h-.613c-1.277 0-2.29-.425-3.034-1.144l-.746-.985-.027-.08 2.024-1.385c.399.72.958 1.172 1.73 1.172h.612c.72 0 1.252-.453 1.252-1.198 0-.586-.346-.932-.799-1.172l-.745-.292-.906-.293c-2.05-.72-3.088-1.544-3.088-3.62 0-2.344 1.491-3.728 4.02-3.728h.293c1.198 0 2.183.373 2.875 1.012l.879 1.118.053.08-2.023 1.41zM21.13 10.414v12.193H18.6v-6.523l-1.97 4.979-.08.026h-1.89l-.08-.026-1.943-5.005v6.522h-2.582V10.387h2.769l2.848 7.135 2.716-7.135 2.742.027zm107.927 0v12.193h-2.317l-3.806-6.656v6.656h-2.636V10.414h2.369l3.914 6.842v-6.842h2.476zm-75.208 9.77v2.423h-7.934V10.414h7.934v2.422h-4.872l-.346.32v1.757l.372.293h4.02v2.422h-4.02l-.346.293v1.97l.373.267h4.819v.026zm60.165 6.363l4.02 12.193h-2.902l-.479-1.464-.506-.32h-2.343l-.479.32-.506 1.49h-2.848l4.02-12.192h2.023v-.027zm-.266 8.12l-.187.186h-1.118l-.186-.186.346-1.571c.266-1.198.399-2.476.399-2.476h.054s.133 1.305.372 2.476l.32 1.57zm14.296-.906l1.864 4.979h-2.849l-1.784-4.659-.426-.32h-1.357l-.506.506v4.473h-2.716V26.547h5.351c2.423 0 3.914 1.41 3.914 3.727v.186c0 1.172-.533 2.05-1.305 2.556l-.186.745zm-1.651-3.274c0 .532-.372.799-.985.799h-2.129l-.24-.213v-1.598l.24-.213h2.129c.639 0 .985.293.985.852v.373zm-38.096 4.739c0 .426-.426.825-.985.825h-2.13l-.24-.213v-6.363l.24-.213h2.13c.532 0 .985.453.985.852v5.112zm-6.336-8.68h5.35c2.423 0 3.914 1.412 3.914 3.728v4.792c0 2.29-1.49 3.674-3.913 3.674H81.96V26.547zm-51.967 9.771v2.423h-7.933V26.547h7.933v2.422h-4.872l-.346.32v1.757l.373.293h3.993v2.422h-4.02l-.346.293v1.97l.373.267h4.845v.026zm32.852-2.556l1.864 4.979h-2.85l-1.783-4.659-.426-.32h-1.49l-.373.347v4.632h-2.716V26.547h5.351c2.423 0 3.914 1.41 3.914 3.727v.186c0 1.172-.533 2.05-1.305 2.556l-.186.745zm-1.464-3.274c0 .532-.373.799-.985.799h-2.45l-.24-.213v-1.598l.24-.213h2.45c.639 0 .985.293.985.852v.373zM72.084 38.9h-1.358c-2.422 0-3.967-1.411-3.967-3.514v-5.671c0-2.103 1.571-3.514 3.967-3.514h1.358c2.37 0 3.913 1.41 3.913 3.514v5.67c0 2.104-1.544 3.515-3.913 3.515zm.932-3.514c0 .479-.346.825-.959.825H70.7c-.692 0-1.038-.32-1.038-.825v-5.671c0-.426.48-.852 1.038-.852h1.358c.56 0 .959.373.959.852v5.67zm-20.42-8.84v2.424h-2.449l-.373.266v9.504h-2.688v-9.478l-.373-.293h-2.476v-2.422h8.36zM15.405 38.9h-1.358c-2.422 0-3.966-1.411-3.966-3.514v-5.671c0-2.103 1.57-3.514 3.966-3.514h1.358c2.37 0 3.914 1.41 3.914 3.514v.825h-2.69v-.825c0-.666-.532-1.118-1.224-1.118h-1.358c-.665 0-1.304.506-1.304 1.118v5.67c0 .693.506 1.092 1.304 1.092h1.358c.719 0 1.225-.426 1.225-1.091v-.826h2.689v.825c0 2.104-1.545 3.515-3.914 3.515zm26.356-12.353V38.74h-2.316l-3.807-6.656v6.656h-2.636V26.547h2.37l3.913 6.842v-6.842h2.476zm108.832 9.77v2.423h-7.933V26.547h7.933v2.422h-4.872l-.346.32v1.757l.373.293h3.993v2.422h-4.02l-.346.293v1.97l.373.267h4.845v.026zm-48.373 0v2.423h-7.933V26.547h7.933v2.422h-4.872l-.346.32v1.757l.373.293h3.967v2.422h-4.02l-.346.293v1.97l.372.267h4.872v.026zm37.564-9.77v2.422h-2.449l-.373.267v9.504h-2.688v-9.478l-.373-.293h-2.476v-2.422h8.359z"/></g><defs><clipPath id="clip0"><path fill="#fff" transform="translate(.443 .67)" d="M0 0h160v80.133H0z"/></clipPath></defs></svg>
